X: 242
T: Song of the Ticketless Society
C: Teton Sioux band 1911-1914
N: Derived from sioux237.krn
O: South Dakota, U.S.A.
N: Teton Sioux Music by Frances Densmore, 1918
Z: transcribed to **kern format by Craig Sapp
L: 1/8
M: 2/4
Q: 1/4=58
K: D clef=bass
%%linebreak <none>
D DD2 [I:setbarnb 2]| 
D D D D | 
D2B,2- | 
B, C C C ||  
[M:3/4]B,6 ||  
[M:2/4]B, B, B, (B, ||  
[M:3/4]B,2)F,4 ]|:  
B, B, C CC2 | 
C2C CB,2 | 
A,2A, A,G,2 ||  
[M:2/4]E,2E, E, ||  
[M:3/4]D,2D, D,- D, D, | 
D, D,E,2E,2 ||  
[M:2/4]F, F,E,2 | 
E,< D,- D, D, | 
D,2B,,2 | 
D, D,D,2 ||  
[M:3/4]D,2D, E,D,2 | 
B,, B,,B,,4 ||  
[M:2/4]B,, B,, B,, B,,- | 
B,,4 :|]  



